X:1
T:Etude No.3
T:Etude III.
T:24 Etudes, Op.29
T:H.Bertini
C:H. Bertini
%%score { 1 | 2 }
L:1/8
Q:1/4=172
M:4/4
K:Bb
V:1 treble nm="Piano" snm="Pno."
V:2 bass 
V:1
!p!"^Allegro" (3(GB^c (3dgb (3ab=c' (3^fga | (3gbd (3eg=c (3BdG (3^FAD | %2
 (3(G)B^c (3dgb (3ab=c' (3^fga | (3gbd (3eg=c (3BdG (3^FAD | (3(G)^FG"_cresc." (3BAG (3=FAc (3gfe | %5
!mf! (3dfb (3d'a!>(!b (3^fgd (3ec!>)!A |!p!{/c} (3(B)AB"_cresc." (3dcB (3Ace (3gfe | %7
!mf! (3d^c'd' (3ab^f (3gde (3cA=F | B2)!p! (3(AfA"_cresc." (3BfB (3AfA | (3BfB (3AfA (3BfB (3AfA | %10
 B) z!f! (3(=e'f'g' (3f'_e'd' (3c'ba | (3gfe (3dcB (3ABc (3FGA | %12
 B) z!p! (3(AfA (3B"_cresc."fB (3AfA | (3BfB (3AFA (3BfB (3AFA | B) z z2!ff! ([Bd]4 | %15
 [Bcg]4 [Acf]4 | [Bd]) z z2 ([GB]4 | [GAe]4 [^FAd]4 |!p! (3(G)B^c (3d!p!gb (3ab=c' (3^fga | %19
 (3gbd (3egc (3BdG (3^FAD | (3(G)B^c (3dgb (3ab=c' (3^fga | (3gbd (3egc (3BdG (3^FAD | %22
 G)!f! z z2 ([GB]4 | [GAe]4 [^FAd]4 | [GB]2) (3(g'f'e' (3d'c'b (3agf | (3edc (3BAG (3^FGA (3D=EF | %26
 G2)!p! (3(^Fed"_cresc." (3^fgd (3Fed | (3^fgd (3^Fed (3fgd!f! (3Fed | %28
 g2)!p![Q:1/4=150] z2!p! [DGB]2[Q:1/4=140] z2 |!pp! [B,DG]8 |] %30
V:2
 [G,B,D]2 z2 (!>![G,-CE]4 | .[G,B,D]2) .[C,G,A,]2 .[D,G,B,]2 .[D,A,C]2 | .[G,B,]2 z2 (!>![G,-CE]4 | %3
 .[G,B,D]2) .[C,G,A,]2 .[D,G,B,]2 .[D,A,C]2 | [G,B,]2 z2 ((!>![A,C]4 | %5
 .B,)) z .[D,F,B,]2 .[E,G,C]2 .[F,CE]2 | [B,D]2 z2 !>![G,C-E]4 | %7
 [^F,CD]2 .[G,B,D]2 .[E,G,C]2 .[=F,CE]2 | [B,D]2 [F,CE]2 [B,D]2 [F,CE]2 | %9
 [B,D]2 [F,CE]2 [B,D]2 [F,CE]2 | [B,D] z z2!f! (D,2 [F,B,]2) | (E,2 [B,C]2) (F,2 [CE]2) | %12
 [B,D] z [F,CE]2 [B,D]2 [F,CE]2 | [B,D]2 [F,CE]2 [B,D]2 [F,CE]2 | %14
 [B,D] z[K:treble] (3(BAG (3FED[K:bass] (3CB,A, | (3G,F,E, (3D,C,B,, (3A,,G,,F,, (3E,,D,,C,, | %16
 B,,,) z (3(GFE (3DCB, (3A,G,F, | (3E,D,C, (3B,,A,,G,,!>(! (3^F,,E,,D,, (3C,,B,,,!>)!A,,, | %18
 G,,,2) z2 (!>![G,-CE]4 | .[G,B,D]2) .[C,G,A,]2 .[D,G,B,]2 .[D,A,C]2 | [G,B,]2 z2 (!>![G,-CE]4 | %21
 .[G,B,D]2) .[C,G,A,]2 .[D,G,B,]2 .[D,A,C]2 | [G,B,] z (3(GFE (3DCB, (3A,G,F, | %23
 (3E,D,C, (3B,,A,,G,, (3^F,,E,,D,, (3C,,B,,,A,,, | G,,,2) z2 [B,,D,G,]4 | [C,G,A,]4 [D,A,C]4 | %26
 [G,B,]2 [D,A,C]2 [G,B,]2 [D,A,C]2 | [G,B,]2 [D,A,C]2 [G,B,]2 [D,A,C]2 | %28
 [G,B,]2 (3(G,,^F,,G,, G,2)!pp! (3(G,,F,,G,,- | [G,,G,]8) |] %30

